X:26091
T: Earl of Angus and Arran
C: William Marshall
R: strathspey
B: RSCDS 26-9
Z: 1997 by John Chambers <jc:trillian.mit.edu>
M: C
L: 1/8
%--------------------
K: Gdor
D \
| "Gm"G<G d2 B>A G>B | "Am"c<E A>G "D7"^F>D E>F \
| "Gm"G<G d2 B>A G>B | "Am"c<E "D7"A>^F "Gm"G3 :|
d \
| "Gm"B<d G>d B<d G>^f | g>G B>G "D7"^F<A A>c \
| "Gm"B<d G>d B<d g>b | "A7"a>g f>e "D"d3 |]
d \
| "Am"c<e A>c "Gm"B<d G>B | "F"A>B c>B "D7"A>G ^F>D \
| "Gm"G<B "D7"A>c "Gm"B<d "Cm"c>_e | "Gm"d<g "D7"^f>a "Gm"g3 |]
